X: 14
T: No_22_Arapaho_Song_of_the_World_War_(b).krn
N: Derived from No_22_Arapaho_Song_of_the_World_War_(b).krn
%%abc-version 2.0
%%abcx-abcm2ps-target-version 5.9.1 (29 Sep 2008)
%%abc-creator hum2abc beta
%%abcx-conversion-date 2019/03/15 08:27:55
%%humdrum-veritas 756235316
%%humdrum-veritas-data 3488776806
%%linebreak <none>
%%barnumbers 0
L: 1/8
M: 3/4
%%staves {1 2}
V: 1 clef=bass
V: 2 clef=bass
K: Eb
[V:1] [K:clef=bass][M:3/4]z4(B,/G,/) z ]|:  
[V:2] [K:clef=bass][M:3/4]G,,2G,,2G,,2 ]|:  
[V:1] B,3/B,/B,2B, z | 
[V:2] G,,2G,,2G,,2 | 
[V:1] [M:2/4]E/(EC/) B,/B,3/ | 
[V:2] [M:2/4]z4 | 
[V:1] [M:3/8]B,2G,/ z/ | 
[V:2] [M:3/8]z3 | 
[V:1] [M:3/4](3B,B,B,B,2B,/B,3/ | 
[V:2] [M:3/4]z6 | 
[V:1] [M:2/4]F,/F,3/ F,G, | 
[V:2] [M:2/4]z4 | 
[V:1] [M:3/4]F,E, B,, zE,2 | 
[V:2] [M:3/4]z6 | 
[V:1] [M:2/4]B,,/B,,3/ B,,B,, | 
[V:2] [M:2/4]z4 | 
[V:1] B,,2z (B,/G,/) :|]  
[V:2] z4 :|]  
[V:1] B,,B,, B,, z |]  
[V:2] z4 |]  



